dist/assets/img/Forestweb.svg

<svg width="66" height="9" viewBox="0 0 66 9" fill="none" xmlns="http://www.w3.org/2000/svg">
<path d="M5.77194 0.457219V2.10562H2.15974V3.88636H4.86258V5.48663H2.15974V8.90374H0V0.457219H5.77194Z" fill="white"/>
<path d="M9.70185 9C9.01141 9 8.38832 8.85963 7.8326 8.57888C7.2853 8.29813 6.85167 7.89706 6.5317 7.37567C6.22016 6.85428 6.06439 6.24465 6.06439 5.54679C6.06439 4.85695 6.22437 4.25134 6.54433 3.72995C6.8643 3.20053 7.30214 2.79545 7.85786 2.51471C8.41358 2.23396 9.03667 2.09358 9.72711 2.09358C10.4176 2.09358 11.0406 2.23396 11.5964 2.51471C12.1521 2.79545 12.5899 3.20053 12.9099 3.72995C13.2298 4.25134 13.3898 4.85695 13.3898 5.54679C13.3898 6.23663 13.2256 6.84626 12.8973 7.37567C12.5773 7.89706 12.1352 8.29813 11.5711 8.57888C11.0154 8.85963 10.3923 9 9.70185 9ZM9.70185 7.21925C10.1144 7.21925 10.4639 7.07487 10.7501 6.7861C11.0448 6.49733 11.1922 6.08422 11.1922 5.54679C11.1922 5.00936 11.0491 4.59626 10.7628 4.30749C10.4849 4.01872 10.1397 3.87433 9.72711 3.87433C9.30611 3.87433 8.95668 4.01872 8.67881 4.30749C8.40095 4.58824 8.26202 5.00134 8.26202 5.54679C8.26202 6.08422 8.39674 6.49733 8.66618 6.7861C8.94405 7.07487 9.28927 7.21925 9.70185 7.21925Z" fill="white"/>
<path d="M16.6954 3.30882C16.948 2.93984 17.2637 2.65107 17.6426 2.44251C18.0215 2.22594 18.4425 2.11765 18.9056 2.11765V4.29545H18.312C17.7731 4.29545 17.369 4.40775 17.0995 4.63235C16.8301 4.84893 16.6954 5.23396 16.6954 5.78743V8.90374H14.5356V2.18984H16.6954V3.30882Z" fill="white"/>
<path d="M26.5813 5.4385C26.5813 5.63102 26.5687 5.83155 26.5435 6.04011H21.6556C21.6893 6.45722 21.8282 6.77807 22.0724 7.00267C22.325 7.21925 22.6323 7.32754 22.9944 7.32754C23.5333 7.32754 23.908 7.11096 24.1185 6.67781H26.4172C26.2993 7.11898 26.0846 7.51604 25.773 7.86898C25.4699 8.22192 25.0868 8.49866 24.6237 8.6992C24.1606 8.89973 23.6427 9 23.0702 9C22.3797 9 21.7651 8.85963 21.2262 8.57888C20.6873 8.29813 20.2663 7.89706 19.9632 7.37567C19.6601 6.85428 19.5085 6.24465 19.5085 5.54679C19.5085 4.84893 19.6559 4.2393 19.9506 3.71791C20.2537 3.19652 20.6747 2.79545 21.2136 2.51471C21.7524 2.23396 22.3713 2.09358 23.0702 2.09358C23.7522 2.09358 24.3584 2.22995 24.8889 2.50267C25.4194 2.7754 25.832 3.16444 26.1267 3.66979C26.4298 4.17513 26.5813 4.76471 26.5813 5.4385ZM24.3711 4.89706C24.3711 4.54412 24.2448 4.26337 23.9922 4.05481C23.7396 3.84626 23.4238 3.74198 23.0449 3.74198C22.6829 3.74198 22.3755 3.84225 22.1229 4.04278C21.8787 4.24332 21.7272 4.52807 21.6682 4.89706H24.3711Z" fill="white"/>
<path d="M30.5877 9C29.9731 9 29.4258 8.89973 28.9458 8.6992C28.4659 8.49866 28.087 8.22594 27.8091 7.88102C27.5313 7.52808 27.3755 7.13503 27.3418 6.70187H29.4763C29.5015 6.93449 29.6152 7.12299 29.8173 7.26738C30.0194 7.41176 30.2678 7.48396 30.5625 7.48396C30.8319 7.48396 31.0382 7.43583 31.1813 7.33957C31.3329 7.23529 31.4087 7.10294 31.4087 6.94251C31.4087 6.75 31.3034 6.60963 31.0929 6.52139C30.8824 6.42513 30.5414 6.32086 30.0699 6.20856C29.5647 6.09626 29.1437 5.97995 28.8069 5.85963C28.4701 5.73128 28.1796 5.53476 27.9354 5.27005C27.6912 4.99733 27.5691 4.63235 27.5691 4.17513C27.5691 3.79011 27.6786 3.44118 27.8975 3.12834C28.1249 2.80749 28.4533 2.55481 28.8827 2.37032C29.3205 2.18583 29.8384 2.09358 30.4362 2.09358C31.3203 2.09358 32.0149 2.30214 32.5201 2.71925C33.0338 3.13636 33.3285 3.68984 33.4042 4.37968H31.4087C31.375 4.14706 31.2655 3.96257 31.0803 3.8262C30.9035 3.68984 30.6677 3.62166 30.373 3.62166C30.1204 3.62166 29.9268 3.66979 29.792 3.76604C29.6573 3.85428 29.59 3.97861 29.59 4.13904C29.59 4.33155 29.6952 4.47594 29.9057 4.57219C30.1246 4.66845 30.4614 4.76471 30.9161 4.86096C31.4382 4.98931 31.8634 5.11765 32.1918 5.24599C32.5201 5.36631 32.8064 5.56684 33.0506 5.84759C33.3032 6.12032 33.4337 6.4893 33.4421 6.95455C33.4421 7.34759 33.3242 7.70053 33.0885 8.01337C32.8611 8.31818 32.5286 8.55882 32.0907 8.73529C31.6613 8.91177 31.1603 9 30.5877 9Z" fill="white"/>
<path d="M38.6914 7.15909V8.90374H37.5926C36.8095 8.90374 36.1991 8.72326 35.7612 8.3623C35.3234 7.99332 35.1045 7.39572 35.1045 6.56952V3.8984H34.2456V2.18984H35.1045V0.553476H37.2642V2.18984H38.6788V3.8984H37.2642V6.59358C37.2642 6.79412 37.3147 6.9385 37.4158 7.02674C37.5168 7.11497 37.6852 7.15909 37.921 7.15909H38.6914Z" fill="white"/>
<path d="M50.8684 2.33422L48.7087 8.90374H47.8246L45.9174 3.39305L44.0103 8.90374H43.1136L40.9538 2.33422H41.8506L43.5682 8.04947L45.5006 2.33422H46.3847L48.2919 8.0615L49.9969 2.33422H50.8684Z" fill="white"/>
<path d="M57.8997 5.28209C57.8997 5.57086 57.8913 5.79144 57.8744 5.94385H52.153C52.1783 6.44118 52.3046 6.86631 52.5319 7.21925C52.7593 7.57219 53.0582 7.84091 53.4287 8.0254C53.7991 8.20187 54.2033 8.29011 54.6411 8.29011C55.2137 8.29011 55.6936 8.15775 56.081 7.89305C56.4767 7.62834 56.7377 7.27139 56.864 6.82219H57.7987C57.6303 7.4639 57.2682 7.9893 56.7125 8.3984C56.1652 8.79947 55.4747 9 54.6411 9C53.9928 9 53.4118 8.86364 52.8982 8.59091C52.3846 8.31016 51.9804 7.91711 51.6857 7.41176C51.3994 6.8984 51.2563 6.3008 51.2563 5.61898C51.2563 4.93717 51.3994 4.33957 51.6857 3.8262C51.972 3.31283 52.3719 2.91979 52.8856 2.64706C53.3992 2.37433 53.9844 2.23797 54.6411 2.23797C55.2979 2.23797 55.8705 2.37433 56.3588 2.64706C56.8556 2.91979 57.2345 3.28877 57.4955 3.75401C57.765 4.21123 57.8997 4.72059 57.8997 5.28209ZM57.003 5.25802C57.0114 4.76872 56.9061 4.3516 56.6872 4.00668C56.4767 3.66176 56.1862 3.40107 55.8157 3.2246C55.4453 3.04813 55.0411 2.95989 54.6033 2.95989C53.9465 2.95989 53.3866 3.16043 52.9235 3.5615C52.4604 3.96257 52.2035 4.52807 52.153 5.25802H57.003Z" fill="white"/>
<path d="M59.9755 3.79011C60.2028 3.33289 60.5522 2.95989 61.0238 2.67112C61.5037 2.38235 62.0678 2.23797 62.7162 2.23797C63.3477 2.23797 63.9118 2.37834 64.4086 2.65909C64.9054 2.93182 65.2927 3.32487 65.5706 3.83823C65.8569 4.34358 66 4.93316 66 5.60695C66 6.28075 65.8569 6.87433 65.5706 7.3877C65.2927 7.90107 64.9012 8.29813 64.396 8.57888C63.8992 8.85963 63.3393 9 62.7162 9C62.0594 9 61.4911 8.85963 61.0111 8.57888C60.5396 8.29011 60.1944 7.91711 59.9755 7.45989V8.90374H59.104V0H59.9755V3.79011ZM65.1033 5.60695C65.1033 5.0615 64.9896 4.59225 64.7623 4.1992C64.5433 3.79813 64.2402 3.49332 63.8529 3.28476C63.4656 3.0762 63.0277 2.97192 62.5394 2.97192C62.0678 2.97192 61.6342 3.08021 61.2385 3.29679C60.8511 3.51337 60.5438 3.82219 60.3165 4.22326C60.0891 4.62433 59.9755 5.08957 59.9755 5.61898C59.9755 6.1484 60.0891 6.61364 60.3165 7.01471C60.5438 7.41578 60.8511 7.7246 61.2385 7.94118C61.6342 8.15775 62.0678 8.26604 62.5394 8.26604C63.0277 8.26604 63.4656 8.16177 63.8529 7.95321C64.2402 7.73663 64.5433 7.42781 64.7623 7.02674C64.9896 6.61765 65.1033 6.14438 65.1033 5.60695Z" fill="white"/>
</svg>

<svg width="66" height="9" fill="none" xmlns="http://www.w3.org/2000/svg"><path d="M5.772.457v1.649H2.16v1.78h2.703v1.6H2.16v3.418H0V.457h5.772zM9.702 9c-.69 0-1.314-.14-1.87-.421a3.224 3.224 0 01-1.3-1.203c-.312-.522-.468-1.131-.468-1.83 0-.689.16-1.295.48-1.816a3.18 3.18 0 011.314-1.215c.556-.281 1.179-.421 1.87-.421.69 0 1.313.14 1.868.42.556.281.994.687 1.314 1.216.32.521.48 1.127.48 1.817s-.164 1.3-.493 1.829a3.19 3.19 0 01-1.326 1.203c-.556.28-1.179.421-1.87.421zm0-1.78a1.42 1.42 0 001.048-.434c.295-.289.442-.702.442-1.24 0-.537-.143-.95-.43-1.239a1.38 1.38 0 00-1.035-.433c-.42 0-.77.145-1.048.433-.278.281-.417.694-.417 1.24 0 .537.135.95.404 1.24.278.288.623.432 1.036.432zm6.993-3.911c.253-.37.569-.658.948-.866a2.5 2.5 0 011.263-.325v2.177h-.594c-.539 0-.943.113-1.213.337-.269.217-.404.602-.404 1.155v3.117h-2.16V2.19h2.16v1.119zm9.886 2.13c0 .192-.012.393-.037.601h-4.888c.033.417.172.738.416.963.253.216.56.325.922.325.54 0 .914-.217 1.125-.65h2.298a2.918 2.918 0 01-.644 1.191c-.303.353-.686.63-1.15.83-.462.2-.98.301-1.553.301-.69 0-1.305-.14-1.844-.421a3.074 3.074 0 01-1.263-1.203c-.303-.522-.454-1.131-.454-1.83 0-.697.147-1.307.442-1.828a3.074 3.074 0 011.263-1.203c.538-.281 1.157-.421 1.856-.421.682 0 1.288.136 1.819.409.53.272.943.661 1.238 1.167.303.505.454 1.095.454 1.769zm-2.21-.542c0-.353-.126-.634-.379-.842-.252-.209-.568-.313-.947-.313-.362 0-.67.1-.922.3-.244.201-.396.486-.455.855h2.703zM30.588 9c-.615 0-1.162-.1-1.642-.3-.48-.201-.859-.474-1.137-.819a2.139 2.139 0 01-.467-1.18h2.134a.774.774 0 00.341.566c.202.145.45.217.745.217.27 0 .476-.048.62-.144.15-.105.227-.237.227-.397 0-.193-.106-.333-.316-.422-.21-.096-.552-.2-1.023-.312a10.804 10.804 0 01-1.263-.35 2.27 2.27 0 01-.872-.589c-.244-.273-.366-.638-.366-1.095 0-.385.11-.734.329-1.047.227-.32.555-.573.985-.758.438-.184.955-.276 1.553-.276.884 0 1.579.208 2.084.625.514.417.808.97.884 1.66H31.41a.803.803 0 00-.329-.553c-.176-.136-.412-.204-.707-.204-.253 0-.446.048-.581.144a.421.421 0 00-.202.373c0 .193.105.337.316.433.219.096.555.193 1.01.289.522.128.947.257 1.276.385.328.12.614.32.859.602.252.272.383.641.391 1.107 0 .393-.118.746-.353 1.058-.228.305-.56.546-.998.722-.43.177-.93.265-1.503.265zm8.103-1.84v1.744h-1.098c-.784 0-1.394-.18-1.832-.542-.438-.369-.657-.966-.657-1.792V3.898h-.858V2.19h.858V.553h2.16V2.19h1.415v1.708h-1.415v2.696c0 .2.05.345.152.433.1.088.27.132.505.132h.77zm12.177-4.826l-2.16 6.57h-.883l-1.908-5.51-1.907 5.51h-.896l-2.16-6.57h.897l1.717 5.715 1.933-5.715h.884l1.907 5.728 1.705-5.728h.871zM57.9 5.282c0 .289-.009.51-.026.662h-5.721c.025.497.152.922.379 1.275.227.353.526.622.897.806.37.177.774.265 1.212.265.573 0 1.053-.132 1.44-.397.396-.265.657-.622.783-1.07h.935a2.793 2.793 0 01-1.087 1.575c-.547.401-1.237.602-2.07.602-.65 0-1.23-.136-1.744-.41a3.1 3.1 0 01-1.212-1.178c-.287-.514-.43-1.111-.43-1.793 0-.682.143-1.28.43-1.793a2.912 2.912 0 011.2-1.179c.513-.273 1.098-.409 1.755-.409.657 0 1.23.136 1.718.41a2.83 2.83 0 011.136 1.106c.27.457.405.967.405 1.528zm-.897-.024c.008-.49-.097-.906-.316-1.251a2.012 2.012 0 00-.871-.782 2.782 2.782 0 00-1.213-.265c-.657 0-1.216.2-1.68.602-.463.4-.72.966-.77 1.696h4.85zm2.972-1.468a2.73 2.73 0 011.049-1.119c.48-.289 1.044-.433 1.692-.433.632 0 1.196.14 1.693.421.496.273.884.666 1.162 1.18.286.505.429 1.094.429 1.768 0 .674-.143 1.267-.43 1.78a2.93 2.93 0 01-1.174 1.192 3.354 3.354 0 01-1.68.421c-.657 0-1.225-.14-1.705-.421a2.64 2.64 0 01-1.036-1.12v1.445h-.871V0h.871v3.79zm5.128 1.817c0-.546-.113-1.015-.34-1.408a2.221 2.221 0 00-.91-.914 2.726 2.726 0 00-1.314-.313c-.471 0-.905.108-1.3.325a2.383 2.383 0 00-.922.926c-.228.401-.342.867-.342 1.396 0 .53.114.995.341 1.396.228.4.535.71.922.926.396.217.83.325 1.301.325a2.72 2.72 0 001.314-.313 2.3 2.3 0 00.91-.926c.227-.41.34-.883.34-1.42z" fill="#fff"/></svg>
